X: 6
T: The Humours Of Tullycrine
R: hornpipe
M: 4/4
L: 1/8
K: Ador
|:|EAAB cBcd|eaag e2dB|c2Ac BAGA|Bdde dBAG|
EAAB cBcd|eaag e2dB|c2Ac BAGA|1BAAG A3:|2BAAG A2Bd||
|:eaa2 aged|eaab aged|egg2 aed2|dgga gedB|
A3c B3d|eaag e2dB|c2Ac BAGA|1BAAG A2Bd:|2BAAG A3||


Tune 980	Setting 14178

